icon/ir/laptop.svg

<svg stroke-width="1.5" viewBox="0 0 24 24" fill="none" xmlns="http://www.w3.org/2000/svg" height="1em" width="1em">
  <path d="M3.2 14.2222V4C3.2 2.89543 4.09543 2 5.2 2H18.8C19.9046 2 20.8 2.89543 20.8 4V14.2222M3.2 14.2222H20.8M3.2 14.2222L1.71969 19.4556C1.35863 20.7321 2.31762 22 3.64418 22H20.3558C21.6824 22 22.6414 20.7321 22.2803 19.4556L20.8 14.2222" stroke="currentColor" stroke-width="1.5"/>
  <path d="M11 19L13 19" stroke="currentColor" stroke-linecap="round" stroke-linejoin="round"/>
</svg>

<svg width="24" height="24" stroke-width="1.5" fill="none" xmlns="http://www.w3.org/2000/svg"><path d="M3.2 14.222V4a2 2 0 0 1 2-2h13.6a2 2 0 0 1 2 2v10.222m-17.6 0h17.6m-17.6 0-1.48 5.234A2 2 0 0 0 3.644 22h16.712a2 2 0 0 0 1.924-2.544l-1.48-5.234" stroke="currentColor"/><path d="M11 19h2" stroke="currentColor" stroke-linecap="round" stroke-linejoin="round"/></svg>
